src/assets/logos/v2/alphatrader.svg

<svg width="424" height="242" viewBox="0 0 424 242" fill="none" xmlns="http://www.w3.org/2000/svg">
<path d="M29.1454 187.872H18.7035L0 229.811H9.52388L13.8842 219.426H33.6204L38.0381 229.811H47.8489L29.1454 187.872ZM16.5234 212.829L23.8097 195.158L30.9813 212.829H16.5234Z" fill="white"/>
<path d="M50.8318 187.183H58.9214V229.81H50.8318V187.183Z" fill="white"/>
<path d="M85.886 197.913C81.0094 197.913 76.3622 199.405 73.9525 203.192H73.8378V198.717H65.7482V241.803H73.8378V225.624H73.9525C74.5262 227.517 73.9525 231.075 85.886 231.075C97.8196 231.075 102.926 222.354 102.926 214.437C102.926 206.519 97.7622 197.913 85.886 197.913ZM83.9927 224.764C76.4195 224.764 73.5509 219.657 73.5509 214.379C73.5509 209.101 76.3622 204.11 83.9927 204.11C91.6233 204.11 94.492 209.101 94.492 214.379C94.492 219.657 91.5659 224.764 83.9927 224.764Z" fill="white"/>
<path d="M108.205 187.183H116.295V203.42H116.409C119.049 200.092 123.179 197.912 128.687 197.912C134.195 197.912 141.883 200.321 141.883 208.698V229.868H133.793V211.337C133.793 208.009 132.703 204.165 125.991 204.165C119.278 204.165 116.295 206.518 116.295 213.173V229.926H108.205V187.183Z" fill="white"/>
<path d="M183.65 224.476C183.077 224.476 181.872 224.476 181.872 222.697H181.987V207.895C181.987 203.879 181.528 197.453 165.234 197.453C148.94 197.453 149.915 199.978 148.768 208.125H156.685C156.972 204.682 160.472 202.961 165.176 202.961C169.881 202.961 174.012 203.879 174.012 207.436C174.012 210.993 172.807 210.305 161.16 211.395C155.997 211.854 147.161 215.067 147.161 221.206C147.161 227.344 150.718 230.959 159.841 230.959C168.963 230.959 172.864 228.205 174.471 226.656C174.7 227.861 175.274 230.672 180.552 230.672C185.831 230.672 184.683 230.27 186.29 229.984V224.304C185.658 224.418 184.396 224.476 183.65 224.476ZM173.84 217.362C173.84 224.189 166.496 225.853 162.136 225.853C157.775 225.853 155.595 225.107 155.595 220.976C155.595 216.845 157.087 216.96 163.168 216.271C168.906 215.64 171.43 215.296 173.782 214.321V217.362H173.84Z" fill="white"/>
<path d="M222.951 194.47H207.231V187.872H247.507V194.47H231.787V229.811H222.951V194.47Z" fill="white"/>
<path d="M246.417 198.715H254.507V204.739H254.622C256.802 201.24 260.129 197.855 266.383 197.855C272.637 197.855 268.563 197.969 269.596 198.142V206.116C267.358 205.428 265.809 205.371 264.432 205.371C260.301 205.371 254.507 207.551 254.507 214.78V229.811H246.417V198.658V198.715Z" fill="white"/>
<path d="M308.839 224.476C308.265 224.476 307.06 224.476 307.06 222.698H307.175V207.896C307.175 203.88 306.716 197.454 290.422 197.454C274.128 197.454 275.104 199.978 273.956 208.125H281.874C282.161 204.683 285.66 202.962 290.365 202.962C295.069 202.962 299.2 203.88 299.2 207.437C299.2 210.994 297.995 210.305 286.349 211.395C281.185 211.854 272.35 215.067 272.35 221.206C272.35 227.345 275.907 230.959 285.029 230.959C294.151 230.959 298.053 228.205 299.659 226.656C299.889 227.861 300.462 230.672 305.741 230.672C311.019 230.672 309.872 230.271 311.478 229.984V224.304C310.847 224.419 309.585 224.476 308.839 224.476ZM299.028 217.362C299.028 224.189 291.684 225.853 287.324 225.853C282.964 225.853 280.784 225.107 280.784 220.977C280.784 216.846 282.275 216.96 288.357 216.272C294.094 215.641 296.618 215.297 298.971 214.321V217.362H299.028Z" fill="white"/>
<path d="M342.742 187.126V203.075H342.627C340.217 199.346 342.627 197.797 330.693 197.797C318.76 197.797 313.654 206.288 313.654 214.32C313.654 222.352 318.817 230.958 330.693 230.958C342.569 230.958 342.053 227.401 342.627 225.508H342.742V229.811H350.831V187.126H342.742ZM332.587 224.762C324.956 224.762 322.087 219.541 322.087 214.378C322.087 209.214 325.013 204.108 332.587 204.108C340.16 204.108 343.028 209.099 343.028 214.378C343.028 219.656 340.16 224.762 332.587 224.762Z" fill="white"/>
<path d="M394.266 216.271V215.124C394.266 206.001 386.233 197.51 375.161 197.51C364.088 197.51 356.4 206.231 356.4 214.55C356.4 222.869 363.801 231.016 375.677 231.016C387.553 231.016 391.741 224.131 393.52 220.689H384.684C383.078 223.27 383.422 225.164 375.39 225.164C367.358 225.164 365.006 219.771 364.833 216.328H394.208H394.266V216.271ZM375.275 203.075C379.234 203.075 384.799 204.911 385.775 211.165H364.891C366.21 204.854 371.317 203.075 375.275 203.075Z" fill="white"/>
<path d="M399.831 198.715H407.92V204.739H408.035C410.215 201.24 413.543 197.855 419.796 197.855C426.05 197.855 421.976 197.969 423.009 198.142V206.116C420.772 205.428 419.223 205.371 417.846 205.371C413.715 205.371 407.92 207.551 407.92 214.78V229.811H399.831V198.658V198.715Z" fill="white"/>
<path d="M332.937 18.5886V18.7608L330.871 40.218L329.896 50.8319L328.06 70.7401L318.02 60.7L288.014 85.5996L282.678 90.0172L320.602 135.628L291.342 159.954L253.418 114.286L249.001 117.958L221.29 140.964L220.83 141.366C219.683 142.283 218.536 143.201 217.331 144.062C204.135 153.701 187.899 159.38 170.343 159.38C152.786 159.38 140.681 155.077 128.575 147.562C109.527 135.8 95.8153 116.294 91.8566 93.4596C91.0534 88.9845 90.6518 84.3948 90.6518 79.6902C90.6518 41.8245 117.101 10.0975 152.5 2.00803C158.237 0.688468 164.204 0 170.343 0C193.062 0 213.602 9.5238 228.059 24.7849L199.144 48.8812C197.767 47.6191 196.332 46.4142 194.841 45.2668C192.202 43.2588 189.448 41.6523 186.464 40.5049C181.415 38.3821 175.85 37.1773 169.998 37.1773C146.648 37.1773 127.772 56.1102 127.772 79.4034C127.772 102.697 146.475 121.4 169.597 121.629H170.457C179.006 121.629 186.923 119.105 193.521 114.687C196.103 112.966 206.373 104.475 208.495 102.238L224.847 88.6977L229.264 85.0258L249.345 68.3305L258.524 60.7L263.803 56.2823L291.055 33.6202L280.9 23.4653L304.136 21.2852L306.086 21.113L314.578 20.3098L332.994 18.5886H332.937Z" fill="white"/>
</svg>

<svg xmlns="http://www.w3.org/2000/svg" width="424" height="242" fill="none" viewBox="0 0 424 242"><path fill="#fff" d="M29.145 187.872H18.703L0 229.811h9.524l4.36-10.385H33.62l4.418 10.385h9.81zm-12.622 24.957 7.287-17.671 7.171 17.671zm34.309-25.646h8.09v42.627h-8.09zm35.054 10.73c-4.877 0-9.524 1.492-11.933 5.279h-.115v-4.475h-8.09v43.086h8.09v-16.179h.115c.573 1.893 0 5.451 11.933 5.451s17.04-8.721 17.04-16.638-5.164-16.524-17.04-16.524m-1.893 26.851c-7.573 0-10.442-5.107-10.442-10.385s2.811-10.269 10.442-10.269c7.63 0 10.499 4.991 10.499 10.269s-2.926 10.385-10.5 10.385m24.213-37.581h8.09v16.237h.114c2.64-3.328 6.77-5.508 12.278-5.508s13.196 2.409 13.196 10.786v21.17h-8.09v-18.531c0-3.328-1.09-7.172-7.802-7.172-6.713 0-9.696 2.353-9.696 9.008v16.753h-8.09zm75.445 37.293c-.573 0-1.778 0-1.778-1.779h.115v-14.802c0-4.016-.459-10.442-16.753-10.442s-15.319 2.525-16.466 10.672h7.917c.287-3.443 3.787-5.164 8.491-5.164 4.705 0 8.836.918 8.836 4.475s-1.205 2.869-12.852 3.959c-5.163.459-13.999 3.672-13.999 9.811s3.557 9.753 12.68 9.753 13.023-2.754 14.63-4.303c.229 1.205.803 4.016 6.081 4.016s4.131-.402 5.738-.688v-5.68c-.632.114-1.894.172-2.64.172m-9.81-7.114c0 6.827-7.344 8.491-11.704 8.491s-6.541-.746-6.541-4.877 1.492-4.016 7.573-4.705c5.738-.631 8.262-.975 10.614-1.95v3.041zm49.111-22.892h-15.72v-6.598h40.276v6.598h-15.72v35.341h-8.836zm23.466 4.245h8.09v6.024h.115c2.18-3.499 5.507-6.884 11.761-6.884s2.18.114 3.213.287v7.974c-2.238-.688-3.787-.745-5.164-.745-4.131 0-9.925 2.18-9.925 9.409v15.031h-8.09v-31.153zm62.422 25.761c-.574 0-1.779 0-1.779-1.778h.115v-14.802c0-4.016-.459-10.442-16.753-10.442s-15.318 2.524-16.466 10.671h7.918c.287-3.442 3.786-5.163 8.491-5.163 4.704 0 8.835.918 8.835 4.475s-1.205 2.868-12.851 3.958c-5.164.459-13.999 3.672-13.999 9.811s3.557 9.753 12.679 9.753 13.024-2.754 14.63-4.303c.23 1.205.803 4.016 6.082 4.016 5.278 0 4.131-.401 5.737-.688v-5.68c-.631.115-1.893.172-2.639.172m-9.811-7.114c0 6.827-7.344 8.491-11.704 8.491s-6.54-.746-6.54-4.876 1.491-4.017 7.573-4.705c5.737-.631 8.261-.975 10.614-1.951v3.041zm43.714-30.236v15.949h-.115c-2.41-3.729 0-5.278-11.934-5.278s-17.039 8.491-17.039 16.523 5.163 16.638 17.039 16.638 11.36-3.557 11.934-5.45h.115v4.303h8.089v-42.685zm-10.155 37.636c-7.631 0-10.5-5.221-10.5-10.384s2.926-10.27 10.5-10.27 10.441 4.991 10.441 10.27c0 5.278-2.868 10.384-10.441 10.384m61.679-8.491v-1.147c0-9.123-8.033-17.614-19.105-17.614s-18.761 8.721-18.761 17.04 7.401 16.466 19.277 16.466 16.064-6.885 17.843-10.327h-8.836c-1.606 2.581-1.262 4.475-9.294 4.475s-10.384-5.393-10.557-8.836h29.433zm-18.991-13.196c3.959 0 9.524 1.836 10.5 8.09h-20.884c1.319-6.311 6.426-8.09 10.384-8.09m24.556-4.36h8.089v6.024h.115c2.18-3.499 5.508-6.884 11.761-6.884 6.254 0 2.18.114 3.213.287v7.974c-2.237-.688-3.786-.745-5.163-.745-4.131 0-9.926 2.18-9.926 9.409v15.031h-8.089v-31.153zM332.937 18.589v.172l-2.066 21.457-.975 10.614-1.836 19.908-10.04-10.04-30.006 24.9-5.336 4.417 37.924 45.611-29.26 24.326-37.924-45.668-4.417 3.672-27.711 23.006-.46.402c-1.147.917-2.294 1.835-3.499 2.696-13.196 9.639-29.432 15.318-46.988 15.318s-29.662-4.303-41.768-11.818c-19.048-11.762-32.76-31.268-36.718-54.102a78 78 0 0 1-1.205-13.77c0-37.865 26.449-69.592 61.848-77.682A79.5 79.5 0 0 1 170.343 0c22.719 0 43.259 9.524 57.716 24.785L199.144 48.88a65 65 0 0 0-4.303-3.614c-2.639-2.008-5.393-3.615-8.377-4.762a42.4 42.4 0 0 0-16.466-3.328c-23.35 0-42.226 18.933-42.226 42.226 0 23.294 18.703 41.997 41.825 42.226h.86c8.549 0 16.466-2.524 23.064-6.942 2.582-1.721 12.852-10.212 14.974-12.449l16.352-13.54 4.417-3.672 20.081-16.695 9.179-7.631 5.279-4.418 27.252-22.662L280.9 23.465l23.236-2.18 1.95-.172 8.492-.803 18.416-1.721z"/></svg>
